; LightBurn 1.7.08
; GRBL device profile, absolute coords
; Bounds: X110.04 Y341.55 to X159.36 Y391.64
G00 G17 G40 G21 G54
G90
M4
; Cut @ 200 mm/min, 100% power
M8
G0 X119.667Y344.872
; Layer C02
G1 X119.504Y344.916S1000F200
G1 X119.347Y344.974
G1 X119.196Y345.047
G1 X119.053Y345.134
G1 X118.919Y345.233
G1 X118.795Y345.345
G1 X118.682Y345.469
G1 X118.58Y345.604
G1 X118.491Y345.749
G1 X118.416Y345.904
G1 X118.356Y346.068
G1 X118.312Y346.24
G1 X118.285Y346.418
G1 X118.276Y346.595
G1 X118.285Y346.769
G1 X118.31Y346.939
G1 X118.352Y347.105
G1 X118.409Y347.264
G1 X118.481Y347.417
G1 X118.567Y347.563
G1 X118.667Y347.699
G1 X118.779Y347.825
G1 X118.904Y347.941
G1 X119.04Y348.044
G1 X119.186Y348.135
G1 X119.342Y348.211
G1 X119.508Y348.272
G1 X119.683Y348.317
G1 X119.855Y348.344
G1 X120.027Y348.353
G1 X120.199Y348.346
G1 X120.369Y348.321
G1 X120.536Y348.281
G1 X120.698Y348.224
G1 X120.855Y348.151
G1 X121.005Y348.062
G1 X121.145Y347.959
G1 X121.274Y347.844
G1 X121.39Y347.717
G1 X121.493Y347.58
G1 X121.582Y347.433
G1 X121.657Y347.278
G1 X121.716Y347.115
G1 X121.76Y346.947
G1 X121.786Y346.775
G1 X121.796Y346.602
G1 X121.788Y346.43
G1 X121.764Y346.26
G1 X121.723Y346.093
G1 X121.666Y345.931
G1 X121.593Y345.774
G1 X121.505Y345.624
G1 X121.402Y345.484
G1 X121.286Y345.355
G1 X121.159Y345.239
G1 X121.022Y345.136
G1 X120.875Y345.047
G1 X120.72Y344.972
G1 X120.558Y344.913
G1 X120.389Y344.87
G1 X120.358Y344.864
G1 X120.182Y344.84
G1 X120.007Y344.834
G1 X119.835Y344.845
G1 X119.667Y344.872
G0 X120.089Y352.933
G1 X119.722Y352.956
G1 X119.365Y353.014
G1 X119.019Y353.106
G1 X118.686Y353.23
G1 X118.369Y353.386
G1 X118.069Y353.57
G1 X117.789Y353.782
G1 X117.53Y354.019
G1 X117.295Y354.281
G1 X117.085Y354.565
G1 X116.903Y354.87
G1 X116.75Y355.194
G1 X116.628Y355.535
G1 X116.54Y355.892
G1 X116.488Y356.263
G1 X116.473Y356.625
G1 X116.494Y356.984
G1 X116.549Y357.337
G1 X116.639Y357.683
G1 X116.761Y358.018
G1 X116.917Y358.341
G1 X117.104Y358.648
G1 X117.321Y358.937
G1 X117.567Y359.204
G1 X117.835Y359.443
G1 X118.125Y359.653
G1 X118.432Y359.834
G1 X118.756Y359.985
G1 X119.094Y360.103
G1 X119.444Y360.188
G1 X119.802Y360.238
G1 X120.176Y360.253
G1 X120.541Y360.231
G1 X120.898Y360.173
G1 X121.243Y360.082
G1 X121.575Y359.958
G1 X121.892Y359.804
G1 X122.191Y359.62
G1 X122.471Y359.41
G1 X122.729Y359.173
G1 X122.965Y358.913
G1 X123.175Y358.63
G1 X123.357Y358.327
G1 X123.511Y358.005
G1 X123.633Y357.665
G1 X123.722Y357.309
G1 X123.776Y356.939
G1 X123.793Y356.578
G1 X123.774Y356.219
G1 X123.72Y355.865
G1 X123.632Y355.519
G1 X123.511Y355.183
G1 X123.357Y354.86
G1 X123.171Y354.552
G1 X122.955Y354.261
G1 X122.711Y353.994
G1 X122.443Y353.754
G1 X122.155Y353.542
G1 X121.848Y353.359
G1 X121.524Y353.208
G1 X121.187Y353.088
G1 X120.838Y353.002
G1 X120.463Y352.948
G1 X120.089Y352.933
G0 X145.1Y352.047
G1 Y352.201
G1 X145.114Y352.354
G1 X145.141Y352.503
G1 X145.18Y352.649
G1 X145.231Y352.79
G1 X145.294Y352.927
G1 X145.368Y353.057
G1 X145.454Y353.181
G1 X145.55Y353.298
G1 X145.656Y353.406
G1 X145.771Y353.505
G1 X145.897Y353.595
G1 X146.031Y353.674
G1 X146.174Y353.742
G1 X146.338Y353.799
G1 X146.505Y353.845
G1 X146.681Y353.872
G1 X146.855Y353.881
G1 X147.027Y353.873
G1 X147.195Y353.849
G1 X147.359Y353.808
G1 X147.518Y353.753
G1 X147.67Y353.683
G1 X147.814Y353.599
G1 X147.95Y353.502
G1 X148.076Y353.392
G1 X148.192Y353.27
G1 X148.296Y353.137
G1 X148.387Y352.994
G1 X148.465Y352.84
G1 X148.528Y352.678
G1 X148.576Y352.506
G1 X148.606Y352.329
G1 X148.618Y352.153
G1 X148.613Y351.979
G1 X148.59Y351.808
G1 X148.552Y351.642
G1 X148.498Y351.481
G1 X148.428Y351.327
G1 X148.345Y351.18
G1 X148.248Y351.042
G1 X148.138Y350.913
G1 X148.015Y350.796
G1 X147.882Y350.69
G1 X147.737Y350.596
G1 X147.582Y350.517
G1 X147.417Y350.453
G1 X147.244Y350.404
G1 X147.212Y350.397
G1 X147.037Y350.37
G1 X146.862Y350.361
G1 X146.69Y350.369
G1 X146.522Y350.394
G1 X146.358Y350.434
G1 X146.2Y350.489
G1 X146.048Y350.56
G1 X145.903Y350.643
G1 X145.767Y350.741
G1 X145.641Y350.85
G1 X145.526Y350.972
G1 X145.422Y351.105
G1 X145.33Y351.249
G1 X145.252Y351.402
G1 X145.189Y351.565
G1 X145.142Y351.736
G1 X145.114Y351.892
G1 X145.1Y352.047
G0 X142.358Y360.815
G1 X142.408Y360.781
G1 X142.468Y360.767
G1 X151.467Y360.915
G1 X151.489
G1 X151.511Y360.922
G1 X151.532Y360.93
G1 X151.551Y360.94
G1 X151.569Y360.954
G1 X151.591Y360.979
G1 X151.609Y361.007
G1 X151.623Y361.05
G1 Y361.077
G1 X151.412Y374.075
G1 Y374.098
G1 X151.386Y374.16
G1 X151.372Y374.178
G1 X151.338Y374.207
G1 X151.308Y374.221
G1 X151.276Y374.231
G1 X151.249
G1 X142.25Y374.085
G1 X142.206Y374.078
G1 X142.186Y374.07
G1 X142.166Y374.059
G1 X142.148Y374.046
G1 X142.119Y374.012
G1 X142.102Y373.969
G1 X142.093Y373.923
G1 X142.306Y360.925
G1 X142.323Y360.865
G1 X142.358Y360.815
G0 X122.417Y373.116
G1 X122.094Y372.915
G1 X121.752Y372.748
G1 X121.392Y372.617
G1 X121.017Y372.523
G1 X120.652Y372.472
G1 X120.305Y372.457
G1 X119.963Y372.474
G1 X119.629Y372.522
G1 X119.304Y372.601
G1 X118.989Y372.707
G1 X118.688Y372.842
G1 X118.4Y373.002
G1 X118.128Y373.187
G1 X117.874Y373.395
G1 X117.64Y373.626
G1 X117.426Y373.878
G1 X117.235Y374.149
G1 X117.068Y374.439
G1 X116.927Y374.747
G1 X116.814Y375.07
G1 X116.731Y375.407
G1 X116.679Y375.754
G1 X116.661Y376.098
G1 X116.675Y376.438
G1 X116.72Y376.771
G1 X116.795Y377.097
G1 X116.898Y377.413
G1 X117.03Y377.717
G1 X117.188Y378.008
G1 X117.371Y378.283
G1 X117.579Y378.541
G1 X117.81Y378.78
G1 X118.063Y378.999
G1 X118.338Y379.194
G1 X118.632Y379.365
G1 X118.945Y379.509
G1 X119.275Y379.625
G1 X119.638Y379.714
G1 X120.001Y379.764
G1 X120.362Y379.778
G1 X120.719Y379.757
G1 X121.069Y379.701
G1 X121.41Y379.613
G1 X121.739Y379.492
G1 X122.055Y379.341
G1 X122.356Y379.161
G1 X122.638Y378.952
G1 X122.9Y378.717
G1 X123.139Y378.456
G1 X123.354Y378.17
G1 X123.541Y377.861
G1 X123.699Y377.53
G1 X123.825Y377.179
G1 X123.918Y376.803
G1 X123.969Y376.424
G1 X123.981Y376.043
G1 X123.954Y375.663
G1 X123.887Y375.289
G1 X123.782Y374.923
G1 X123.638Y374.568
G1 X123.456Y374.227
G1 X123.239Y373.907
G1 X122.992Y373.614
G1 X122.717Y373.349
G1 X122.417Y373.116
G0 X120.422Y384.833
G1 X120.246Y384.841
G1 X120.074Y384.867
G1 X119.905Y384.91
G1 X119.742Y384.97
G1 X119.585Y385.045
G1 X119.437Y385.135
G1 X119.297Y385.24
G1 X119.168Y385.36
G1 X119.051Y385.491
G1 X118.948Y385.633
G1 X118.861Y385.784
G1 X118.789Y385.941
G1 X118.733Y386.106
G1 X118.693Y386.275
G1 X118.67Y386.448
G1 X118.664Y386.625
G1 X118.7Y386.947
G1 X118.738Y387.097
G1 X118.788Y387.242
G1 X118.85Y387.38
G1 X118.923Y387.511
G1 X119.1Y387.75
G1 X119.312Y387.956
G1 X119.556Y388.122
G1 X119.826Y388.246
G1 X119.97Y388.291
G1 X120.117Y388.324
G1 X120.269Y388.344
G1 X120.424Y388.351
G1 X120.457
G1 X120.634Y388.338
G1 X120.806Y388.309
G1 X120.972Y388.264
G1 X121.131Y388.203
G1 X121.282Y388.128
G1 X121.424Y388.039
G1 X121.557Y387.937
G1 X121.679Y387.823
G1 X121.791Y387.699
G1 X121.89Y387.564
G1 X121.976Y387.42
G1 X122.048Y387.268
G1 X122.106Y387.108
G1 X122.148Y386.941
G1 X122.174Y386.768
G1 X122.183Y386.591
G1 X122.176Y386.436
G1 X122.156Y386.284
G1 X122.123Y386.136
G1 X122.078Y385.993
G1 X121.953Y385.723
G1 X121.786Y385.479
G1 X121.581Y385.267
G1 X121.341Y385.091
G1 X121.21Y385.018
G1 X121.072Y384.956
G1 X120.927Y384.906
G1 X120.776Y384.868
G1 X120.745Y384.862
G1 X120.422Y384.833
G0 X145.122Y382.28
G1 X145.153Y382.43
G1 X145.196Y382.576
G1 X145.252Y382.716
G1 X145.319Y382.851
G1 X145.397Y382.979
G1 X145.485Y383.1
G1 X145.584Y383.212
G1 X145.692Y383.317
G1 X145.808Y383.412
G1 X145.933Y383.497
G1 X146.066Y383.571
G1 X146.206Y383.634
G1 X146.352Y383.685
G1 X146.505Y383.724
G1 X146.681Y383.751
G1 X146.855Y383.76
G1 X147.027Y383.752
G1 X147.195Y383.727
G1 X147.359Y383.687
G1 X147.517Y383.631
G1 X147.669Y383.561
G1 X147.813Y383.477
G1 X147.949Y383.38
G1 X148.075Y383.271
G1 X148.191Y383.149
G1 X148.295Y383.016
G1 X148.387Y382.873
G1 X148.465Y382.719
G1 X148.528Y382.557
G1 X148.576Y382.385
G1 X148.606Y382.208
G1 X148.618Y382.031
G1 X148.613Y381.857
G1 X148.59Y381.687
G1 X148.551Y381.52
G1 X148.497Y381.36
G1 X148.428Y381.205
G1 X148.344Y381.059
G1 X148.247Y380.92
G1 X148.137Y380.792
G1 X148.015Y380.674
G1 X147.881Y380.568
G1 X147.737Y380.475
G1 X147.582Y380.396
G1 X147.417Y380.331
G1 X147.244Y380.283
G1 X147.212Y380.276
G1 X147.037Y380.246
G1 X146.858Y380.241
G1 X146.681Y380.25
G1 X146.508Y380.276
G1 X146.341Y380.318
G1 X146.181Y380.376
G1 X146.029Y380.448
G1 X145.885Y380.534
G1 X145.75Y380.634
G1 X145.626Y380.745
G1 X145.512Y380.867
G1 X145.411Y381
G1 X145.322Y381.143
G1 X145.247Y381.294
G1 X145.186Y381.453
G1 X145.141Y381.619
G1 X145.112Y381.791
G1 X145.1Y381.968
G1 X145.104Y382.126
G1 X145.122Y382.28
; Cut @ 250 mm/min, 100% power
M8
G0 X134.359Y385
; Layer C01
G1 X134.384Y385.511F250
G1 X134.46Y386.008
G1 X134.583Y386.487
G1 X134.752Y386.946
G1 X134.962Y387.383
G1 X135.213Y387.796
G1 X135.5Y388.18
G1 X135.823Y388.536
G1 X136.178Y388.858
G1 X136.563Y389.146
G1 X136.975Y389.397
G1 X137.412Y389.607
G1 X137.872Y389.775
G1 X138.351Y389.898
G1 X138.847Y389.974
G1 X139.359Y390
G1 X154.359
G1 X154.87Y389.974
G1 X155.366Y389.898
G1 X155.845Y389.775
G1 X156.305Y389.607
G1 X156.742Y389.397
G1 X157.154Y389.146
G1 X157.539Y388.858
G1 X157.894Y388.536
G1 X158.217Y388.18
G1 X158.505Y387.796
G1 X158.755Y387.383
G1 X158.966Y386.946
G1 X159.134Y386.487
G1 X159.257Y386.008
G1 X159.333Y385.511
G1 X159.359Y385
G1 Y350
G1 X159.333Y349.489
G1 X159.257Y348.992
G1 X159.134Y348.513
G1 X158.966Y348.054
G1 X158.755Y347.617
G1 X158.505Y347.204
G1 X158.217Y346.82
G1 X157.894Y346.464
G1 X157.539Y346.142
G1 X157.154Y345.854
G1 X156.742Y345.603
G1 X156.305Y345.393
G1 X155.845Y345.225
G1 X155.366Y345.102
G1 X154.87Y345.026
G1 X154.359Y345
G1 X139.359
G1 X138.847Y345.026
G1 X138.351Y345.102
G1 X137.872Y345.225
G1 X137.412Y345.393
G1 X136.975Y345.603
G1 X136.563Y345.854
G1 X136.178Y346.142
G1 X135.823Y346.464
G1 X135.5Y346.82
G1 X135.213Y347.204
G1 X134.962Y347.617
G1 X134.752Y348.054
G1 X134.583Y348.513
G1 X134.46Y348.992
G1 X134.384Y349.489
G1 X134.359Y350
G1 Y385
G0 X130.423Y386.495
G1 X130.035Y346.497
G1 X130.005Y345.986
G1 X129.924Y345.49
G1 X129.796Y345.012
G1 X129.624Y344.554
G1 X129.409Y344.119
G1 X129.155Y343.71
G1 X128.863Y343.327
G1 X128.537Y342.975
G1 X128.179Y342.656
G1 X127.791Y342.372
G1 X127.376Y342.126
G1 X126.937Y341.919
G1 X126.476Y341.756
G1 X125.996Y341.637
G1 X125.499Y341.566
G1 X124.987Y341.545
G1 X114.988Y341.642
G1 X114.477Y341.673
G1 X113.981Y341.753
G1 X113.503Y341.881
G1 X113.045Y342.054
G1 X112.61Y342.269
G1 X112.201Y342.523
G1 X111.819Y342.815
G1 X111.467Y343.141
G1 X111.147Y343.499
G1 X110.863Y343.887
G1 X110.617Y344.301
G1 X110.41Y344.74
G1 X110.247Y345.201
G1 X110.128Y345.682
G1 X110.057Y346.179
G1 X110.036Y346.69
G1 X110.424Y386.688
G1 X110.455Y387.199
G1 X110.535Y387.695
G1 X110.663Y388.173
G1 X110.836Y388.631
G1 X111.05Y389.066
G1 X111.305Y389.476
G1 X111.596Y389.858
G1 X111.923Y390.21
G1 X112.281Y390.529
G1 X112.668Y390.813
G1 X113.083Y391.059
G1 X113.522Y391.266
G1 X113.983Y391.429
G1 X114.463Y391.548
G1 X114.961Y391.619
G1 X115.472Y391.64
G1 X125.472Y391.543
G1 X125.983Y391.512
G1 X126.478Y391.432
G1 X126.956Y391.304
G1 X127.414Y391.131
G1 X127.849Y390.916
G1 X128.259Y390.662
G1 X128.641Y390.37
G1 X128.993Y390.044
G1 X129.312Y389.686
G1 X129.596Y389.298
G1 X129.843Y388.884
G1 X130.049Y388.445
G1 X130.213Y387.984
G1 X130.331Y387.503
G1 X130.402Y387.006
G1 X130.423Y386.495
M9
G1 S0
M5
G90
; return to user-defined finish pos
G0 X0Y0
M2
